X:275
T:Steirer (73.)
C:traditionell
A:Salzkammergut
S:MIDI erhalten von Christian Amon. Nach einer kopie im besitz von Johann Stoeckl eines manuscriptes. Stoeckl(zitiert von Amon): "diese sammlung wurde 1935 im hause der familie Hohenlohe-Schillingfuerst gefunden. Sie wurde von einem der beiden brueder Steinegger 1866 verfasst. Die originale sind im Ausseer Kammerhofmuseum".
M:3/4
L:1/8
K:G
V:1
Bg dg Bg | d2 Af F2 | Af df Af | d2 Bg G2 |\
Bg dg Bg | d2 Af F2 | Af df Af | G4 z2 |*
V:2
gd bd gd | c'd fd A2 | fd fd fd |bd gd B2 |\
gd bd gd | c'd fd A2 | fd fd fd | B4 z2 |*
